X: 29540
T: Noble?
R: reel
M: 4/4
K: Dmajor
|:zDEF A3D|EFAF ABE2|zDEF A2BF|A3d cA|
zDEF A3D|EFAF Adc2|zDEF AFAF|E2ED FB,3:|
|:Bdef- fBde|f2Bd fe2A|Bdef- fBde|fBBB BABd|
Bdef- fBde|f2fB defa|bfff fefa|feee edcA:|

